X:1
T:Title
%%score 1 { 2 | 3 }
L:1/8
Q:1/4=78
M:4/4
K:Ab
V:1 treble nm="Grand Piano, Soprano"
V:2 bass nm="Choir Pad, Notre Dame, Sweney"
V:3 bass 
V:1
 [Ec]>[Fd] [Ec][DB] [DE][Ec][DB][CA] | [CE][EA][DA][DG] [DF][DG][DF][CE] | %2
w: By~John~Robson~Sweney,~1885 * * * * * * *||
 [Ec]>[Fd] [Ec][DB] [DE][Ec][DB][CA] | [CE][EA][DA][DG] [DF][DG] [CA]2 | %4
w: ||
 [CA]>[CA] [=DA][DG] [DF][Ac][Ac][GB] | [EG][Ge][Fe][A=d] [Ac][Ad][Ac][GB] | %6
w: ||
 [EB]>[EB] [=DB][DA] [DF][Ac][Ac][GB] | [EG][Ge][Fe][A=d] [Ac][Ad] [Ge]2 | %8
w: ||
 [Ec]>[Fd] [Ec][DB] [DE][Ec][DB][CA] | [CE][EA][DA][DG] [DF][DG][DF][CE] | %10
w: ||
 [Ec]>[Fd] [Ec][DB] [DE][Ec][DB][CA] | [CE][EA][DA][DG] [DF][DG] [CA]2- | [CA]4 z4 |] %13
w: |||
V:2
 A,>A, A,G, G,E,E,E, | A,CB,B, B,B, A,2 | A,>A, A,G, G,E,E,E, | A,CB,B, B,B, A,2 | %4
 A,>A, F,F, B,B,B,E | B,B,B,B, B,[K:treble]F E2 | G,>G, F,F, B,B,E,E | B,B,B,B, B,B, B,2 | %8
 A,>A, A,G, G,E,E,E, | A,CB,B, B,B, A,2 | A,>A, A,G, G,E,E,E, | A,CB,B, B,B, A,2- | A,4 z4 |] %13
V:3
 A,,>A,, E,E, .E,2 A,,A,, | A,,A,,E,E, E,E, z2 | A,,>A,, E,E, .E,2 A,,A,, | A,,A,,E,E, E,E, A,,2 | %4
 A,,>A,, B,,B,, B,,=D,E,E, | E,E, z2 B,,B,, E,2 | E,>E, B,,B,, B,,=D, z E, | E,E, z2 B,,B,, E,2 | %8
 A,,>A,, E,E, .E,2 A,,A,, | A,,A,,E,E, E,E, z2 | A,,>A,, E,E, .E,2 A,,A,, | A,,A,,E,E, E,E, A,,2- | %12
 A,,4 z4 |] %13

